components/2.0/icon/icons/icon-shadow-22px.svg

<svg width="22" height="22" xmlns="http://www.w3.org/2000/svg"><g fill="#3D4752" fill-rule="evenodd"><path d="M15 4v10H3V4h12zm2-2H1v14h16V2z"/><path d="M18 6v11H6v3h15V6h-3z" opacity=".3"/></g></svg>

<?xml version="1.0" encoding="UTF-8" standalone="no"?>
<svg width="22px" height="22px" viewBox="0 0 22 22" version="1.1" xmlns="http://www.w3.org/2000/svg" xmlns:xlink="http://www.w3.org/1999/xlink" xmlns:sketch="http://www.bohemiancoding.com/sketch/ns">
    <!-- Generator: Sketch 3.4.4 (17249) - http://www.bohemiancoding.com/sketch -->
    <title>icon-shadow-22px</title>
    <desc>Created with Sketch.</desc>
    <defs></defs>
    <g id="22px" stroke="none" stroke-width="1" fill="none" fill-rule="evenodd" sketch:type="MSPage">
        <g id="icon-shadow-22px" sketch:type="MSArtboardGroup" fill="#3D4752">
            <path d="M15,4 L15,14 L3,14 L3,4 L15,4 L15,4 Z M17,2 L1,2 L1,16 L17,16 L17,2 L17,2 L17,2 Z" id="Shape" sketch:type="MSShapeGroup"></path>
            <path d="M18,6 L18,17 L6,17 L6,20 L21,20 L21,6 L18,6 Z" id="Shape" opacity="0.35" sketch:type="MSShapeGroup"></path>
        </g>
    </g>
</svg>
